X: 1878
T: Tutam Yâr Elinden
C: Suat Işıklı
O: Turkey
F: http://compmusic.upf.edu/node/140
N: huseyni--turku--14_4--tutam_yar--erzurum
N: makam= huseyni
N: form= turku
N: usul= 14_4 = 14/4
M: 14/4
L: 1/16
K: C _2/4B ^3/4f  
Q: 1/4=60
%%MIDI tuningsystem comma53
z4 {g}f2g2 fge6 ege6 dge6 dge6 ced4c2 d3B cBcA  | 
w:  *  Tu tam  yâr_ *  *  e *  *  lin *  *  den  *  *  tu *  *  *  tam    | 
z4 c2d2 d6BA e6cd Bdc4BA d4 dBcA cdB4A2 A4 (3c2B2A2  | 
w:  Çı kam  dağ *  *  la SAZ  *  ra  *  *  *  *  dağ *  SAZ  *  *  la *  *  *  ra   | 
z16  | A12z4  | c2d4BA e6cd  | Bdc4BA d4dBcA  | \
w:  |  vay    |  A ğam_ *  *  ey  SAZ   |  şa *  *  hım_ *  ey  *  SAZ   | 
cdB4A2 A4(3c2B2A2  | 
w:  ey *  *  vah_ ey_  | 
A12z4  | z56  | z4 f2g2 fge6 ege6 dge6 dge6 ced4c2 d3B cBcA  | 
w:  ey    |  |  O lam  bir  *  *  yâr_ *  *  e *  *  li  *  *  bül *  *  *  bül    | 
z4 c2d2 d6BA e6cd Bdc4BA d4 dBcA cdB4A2 A4 (3c2B2A2  | 
w:  İ nem  bağ *  *  la SAZ  *  ra  *  *  *  *  bağ *  SAZ  *  *  la *  *  *  ra   | 
z16  | A12z4  | c2d4BA e6cd  | Bdc4BA d4dBcA  | \
w:  |  vay    |  A ğam_ *  *  ey  SAZ   |  şa *  *  hım_ *  ey  *  SAZ   | 
cdB4A2 A4(3c2B2A2  | 
w:  ey *  *  vah_ ey_  | 
A12z4  | c2d4BA e6cd  | Bdc4BA d4dBcA  | \
w:  ey    |  A ğam_ *  *  ey  SAZ   |  şa *  *  hım_ *  ey  *  SAZ   | 
cdB4A2 A4(3c2B2A2  | 
w:  ey *  *  vah_ ey_  | 
A12z4  | |


